!!!COM: Mozart, Wolfgang Amadeus
!!!OTL: Quartet K. 171
!!!ONM: 
!!!OMV: 1c
!!!CDT: 1756/1/27/-1791/12/5/
!!!OCY: \O3sterreich
**kern	**kern	**kern	**kern
*clefC	*clefF	*clefG	*clefG
*k[b-e-a-]	*k[b-e-a-]	*k[b-e-a-]	*k[b-e-a-]
*E-:	*E-:	*E-:	*E-:
*M4/4	*M4/4	*M4/4	*M4/4
=1	=1	=1	=1
1r	1r	1r	1r
=2	=2	=2	=2
1r	1r	1r	1r
=3	=3	=3	=3
1r	1r	1r	1r
=4	=4	=4	=4
1r	1r	1r	1r
=5	=5	=5	=5
1r	1r	1r	1r
=6	=6	=6	=6
1r	1r	1r	1r
=7	=7	=7	=7
1r	1r	1r	1r
=8	=8	=8	=8
1r	1r	1r	1r
=9	=9	=9	=9
1r	1r	1r	1r
=10	=10	=10	=10
1r	1r	1r	1r
=11	=11	=11	=11
1r	1r	1r	1r
=12	=12	=12	=12
1r	1r	1r	1r
=13	=13	=13	=13
1r	1r	1r	1r
=14	=14	=14	=14
1r	1r	1r	1r
=15	=15	=15	=15
1r	1r	1r	1r
=16	=16	=16	=16
1r	1r	1r	1r
=17	=17	=17	=17
1r	1r	1r	1r
=18	=18	=18	=18
1r	1r	1r	1r
=19	=19	=19	=19
1r	1r	1r	1r
=20	=20	=20	=20
1r	1r	1r	1r
=21	=21	=21	=21
1r	1r	1r	1r
=22	=22	=22	=22
1r	1r	1r	1r
=23	=23	=23	=23
1r	1r	1r	1r
=24	=24	=24	=24
1r	1r	1r	1r
=25	=25	=25	=25
1r	1r	1r	1r
=26	=26	=26	=26
1r	1r	1r	1r
=27	=27	=27	=27
1r	1r	1r	1r
=28	=28	=28	=28
1r	1r	1r	1r
=29	=29	=29	=29
1r	1r	1r	1r
=30	=30	=30	=30
1r	1r	1r	1r
=31	=31	=31	=31
1r	1r	1r	1r
=32	=32	=32	=32
1r	1r	1r	1r
=33	=33	=33	=33
1r	1r	1r	1r
=34	=34	=34	=34
1r	1r	1r	1r
=35	=35	=35	=35
1r	1r	1r	1r
=36	=36	=36	=36
1r	1r	1r	1r
=37	=37	=37	=37
1r	1r	1r	1r
=38	=38	=38	=38
1r	1r	1r	1r
=39	=39	=39	=39
1r	1r	1r	1r
=40	=40	=40	=40
1r	1r	1r	1r
=41	=41	=41	=41
1r	1r	1r	1r
=42	=42	=42	=42
1r	1r	1r	1r
=43	=43	=43	=43
1r	1r	1r	1r
=44	=44	=44	=44
1r	1r	1r	1r
=45	=45	=45	=45
1r	1r	1r	1r
=46	=46	=46	=46
1r	1r	1r	1r
=47	=47	=47	=47
1r	1r	1r	1r
=48	=48	=48	=48
1r	1r	1r	1r
=49	=49	=49	=49
1r	1r	1r	1r
=50	=50	=50	=50
1r	1r	1r	1r
=51	=51	=51	=51
1r	1r	1r	1r
=52	=52	=52	=52
1r	1r	1r	1r
=53	=53	=53	=53
1r	1r	1r	1r
=54	=54	=54	=54
1r	1r	1r	1r
=55	=55	=55	=55
1r	1r	1r	1r
=56	=56	=56	=56
1r	1r	1r	1r
=57	=57	=57	=57
1r	1r	1r	1r
=58	=58	=58	=58
1r	1r	1r	1r
=59	=59	=59	=59
1r	1r	1r	1r
=60	=60	=60	=60
1r	1r	1r	1r
=61	=61	=61	=61
1r	1r	1r	1r
=62	=62	=62	=62
1r	1r	1r	1r
=63	=63	=63	=63
1r	1r	1r	1r
=64	=64	=64	=64
1r	1r	1r	1r
=65	=65	=65	=65
1r	1r	1r	1r
=66	=66	=66	=66
1r	1r	1r	1r
=67	=67	=67	=67
1r	1r	1r	1r
=68	=68	=68	=68
1r	1r	1r	1r
=69	=69	=69	=69
1r	1r	1r	1r
=70	=70	=70	=70
1r	1r	1r	1r
=71	=71	=71	=71
1r	1r	1r	1r
=72	=72	=72	=72
1r	1r	1r	1r
=73	=73	=73	=73
1r	1r	1r	1r
=74	=74	=74	=74
1r	1r	1r	1r
=75	=75	=75	=75
1r	1r	1r	1r
=76	=76	=76	=76
1r	1r	1r	1r
=77	=77	=77	=77
1r	1r	1r	1r
=78	=78	=78	=78
1r	1r	1r	1r
=79	=79	=79	=79
1r	1r	1r	1r
=80	=80	=80	=80
1r	1r	1r	1r
=81	=81	=81	=81
1r	1r	1r	1r
=82	=82	=82	=82
1r	1r	1r	1r
=83	=83	=83	=83
1r	1r	1r	1r
=84	=84	=84	=84
1r	1r	1r	1r
=85	=85	=85	=85
1r	1r	1r	1r
=86	=86	=86	=86
1r	1r	1r	1r
=87	=87	=87	=87
1r	1r	1r	1r
=88	=88	=88	=88
1r	1r	1r	1r
=89	=89	=89	=89
1r	1r	1r	1r
=90	=90	=90	=90
1r	1r	1r	1r
=91	=91	=91	=91
1r	1r	1r	1r
=92	=92	=92	=92
1r	1r	1r	1r
=93	=93	=93	=93
1r	1r	1r	1r
=94	=94	=94	=94
1r	1r	1r	1r
=95	=95	=95	=95
1r	1r	1r	1r
=96	=96	=96	=96
1r	1r	1r	1r
=97	=97	=97	=97
1r	1r	1r	1r
=98	=98	=98	=98
1r	1r	1r	1r
=99	=99	=99	=99
1r	1r	1r	1r
=100	=100	=100	=100
1r	1r	1r	1r
=101	=101	=101	=101
1r	1r	1r	1r
=102	=102	=102	=102
1r	1r	1r	1r
=103	=103	=103	=103
1r	1r	1r	1r
=104	=104	=104	=104
1r	1r	1r	1r
=105	=105	=105	=105
1r	1r	1r	1r
=106	=106	=106	=106
1r	1r	1r	1r
=107	=107	=107	=107
1r	1r	1r	1r
=108	=108	=108	=108
1r	1r	1r	1r
=109	=109	=109	=109
1r	1r	1r	1r
=110	=110	=110	=110
1r	1r	1r	1r
=111	=111	=111	=111
1r	1r	1r	1r
=112	=112	=112	=112
1r	1r	1r	1r
=113	=113	=113	=113
1r	1r	1r	1r
=114	=114	=114	=114
1r	1r	1r	1r
=115	=115	=115	=115
1r	1r	1r	1r
=116	=116	=116	=116
1r	1r	1r	1r
=117	=117	=117	=117
1r	1r	1r	1r
=118	=118	=118	=118
1r	1r	1r	1r
=119	=119	=119	=119
1r	1r	1r	1r
=120	=120	=120	=120
1r	1r	1r	1r
=121	=121	=121	=121
1r	1r	1r	1r
=122	=122	=122	=122
1r	1r	1r	1r
=123	=123	=123	=123
1r	1r	1r	1r
=124	=124	=124	=124
1r	1r	1r	1r
=125	=125	=125	=125
1r	1r	1r	1r
=126	=126	=126	=126
1r	1r	1r	1r
=127	=127	=127	=127
1r	1r	1r	1r
=128	=128	=128	=128
1r	1r	1r	1r
=129	=129	=129	=129
1r	1r	1r	1r
=130	=130	=130	=130
1r	1r	1r	1r
=131	=131	=131	=131
1r	1r	1r	1r
=132	=132	=132	=132
1r	1r	1r	1r
=133	=133	=133	=133
1r	1r	1r	1r
=134	=134	=134	=134
1r	1r	1r	1r
=135	=135	=135	=135
1r	1r	1r	1r
=136	=136	=136	=136
1r	1r	1r	1r
=137	=137	=137	=137
1r	1r	1r	1r
=138	=138	=138	=138
1r	1r	1r	1r
=139	=139	=139	=139
1r	1r	1r	1r
=140	=140	=140	=140
1r	1r	1r	1r
=141	=141	=141	=141
1r	1r	1r	1r
=142	=142	=142	=142
1r	1r	1r	1r
=143	=143	=143	=143
4E-	4e-	4e-	4e-
4BB	4B	4B	4B
4C	4c	4c	4c
4r	4r	4r	4r
=144	=144	=144	=144
4E-	4e-	4e-	4e-
4AA	4A	4A	4A
4BB-	4B-	4B-	4B-
4r	4r	4r	4r
=145	=145	=145	=145
2.r	2.r	2.r	4cc
.	.	.	4f
.	.	.	4a-
4AA-	4F	[4B-	4d
=146	=146	=146	=146
4GG	4G	8B-]	8e-
.	.	4g	4b-
4D	2B-	.	.
.	.	8f	8a-
4E-	.	8f	8a-
.	.	8e-	8g
4BB-	4B-	4d	4f
=147	=147	=147	=147
4E-	4e-	4e-	4e-
4BB-	4B-	4B-	4B-
4AA	4A	4A	4A
4r	4r	4r	4r
=148	=148	=148	=148
4c	4cc	4cc	4cc
4E-	4e-	4e-	4e-
4D	4d	4d	4d
4r	4r	4r	4r
=149	=149	=149	=149
4r	4r	4r	4ff
4D	2B-	4f	4a-
4E-	.	2e-	4g
4AA-	4A-	.	4cc
=150	=150	=150	=150
2BB-	4.G	4.B-	4.e-
.	8A-	8d	8f
8EE-	4G	16r	4e-
.	.	16e-	.
8r	.	16g	.
.	.	16b-	.
8E-	4r	16a-	8r
.	.	16g	.
8r	.	16f	8gg
.	.	16e-	.
=151	=151	=151	=151
8F	2r	16r	16.aa-
.	.	16a-	.
.	.	.	32ff
8r	.	16b-	8dd
.	.	16a-	.
8BB-	.	16g	8r
.	.	16f	.
8r	.	16e-	8bb-
.	.	16d	.
8E-	[2B-	16r	8aa-
.	.	16b-	.
8r	.	16cc	8gg
.	.	16b-	.
8E-	.	16a-	8r
.	.	16g	.
8r	.	16f	8gg
.	.	16e-	.
=152	=152	=152	=152
8F	2B-]	16r	16.aa-
.	.	16a-	.
.	.	.	32ff
8r	.	16b-	8dd
.	.	16a-	.
8BB-	.	16g	8r
.	.	16f	.
8r	.	16e-	8bb-
.	.	16d	.
8E-	[2E-	16r	8aa-
.	.	16b-	.
8r	.	16cc	8gg
.	.	16b-	.
8E-	.	16a-	8r
.	.	16g	.
8r	.	16f	8ee-
.	.	16e-	.
=153	=153	=153	=153
8D-	2.E-]	16r	4.ee-
.	.	16b-	.
8r	.	16cc	.
.	.	16b-	.
8D-	.	16a-	.
.	.	16g	.
8r	.	16f	8ee-
.	.	16e-	.
8C	.	16r	16ee-
.	.	16a-	16aa-
8r	.	16cc	8ee-
.	.	16ee-	.
8AA-	4A-	16cc	8r
.	.	16a-	.
8r	.	16f	8cc
.	.	16e-	.
=154	=154	=154	=154
8BB-	[1B-	16r	4.b-
.	.	16d	.
8r	.	16f	.
.	.	16a-	.
8A-	.	16g	.
.	.	16f	.
8r	.	16e-	8b-
.	.	16d	.
8G	.	16r	16b-
.	.	16e-	16ee-
8r	.	16g	8b-
.	.	16b-	.
8E-	.	16a-	8r
.	.	16g	.
8r	.	16f	[8gg
.	.	16e-	.
=155	=155	=155	=155
8F	2B-]	16r	8gg]
.	.	16e-	.
8r	.	16d	4aa-
.	.	16e-	.
8BB-	.	16f	.
.	.	16g	.
8r	.	16a-	4dd
.	.	16f	.
8C	4c	16r	.
.	.	16a-	.
8r	.	16g	8ee-
.	.	16e-	.
8AA-	4A-	16d	8r
.	.	16c	.
8r	.	16B-	[8cc
.	.	16A-	.
=156	=156	=156	=156
8BB-	2B-	16r	8cc]
.	.	16A-	.
8r	.	16G	4b-
.	.	16B-	.
8BB-	.	16e-	.
.	.	16g	.
8r	.	16a-	4dd
.	.	16f	.
8BB	8B	16r	.
.	.	16a-	.
8C	8c	16g	8ee-
.	.	16e-	.
8AA-	4A-	16d	8r
.	.	16c	.
8r	.	16B-	[8cc
.	.	16A-	.
=157	=157	=157	=157
8BB-	4B-	16r	8cc]
.	.	16A-	.
8r	.	16G	4b-
.	.	16B-	.
8BB-	8G	16e-	.
.	.	16B-	.
8r	8F	16A-	8d
.	.	16B-	.
4EE-	4E-	4G	4e-
8r	8r	8r	8r
8D	8d	8f	8b-
=158	=158	=158	=158
4C	4A	4f	4ee-
8r	8r	8r	8r
8F	8A	8c	8e-
4BB-	4B-	4B-	4d
8r	8r	8r	8r
8G	8g	8b-	8ee-
=159	=159	=159	=159
4F	4f	4cc	4aa-
8r	8r	8r	8r
8BB-	8F	8A-	8d
4EE-	4E-	4G	4e-
4r	4r	4r	4r
==	==	==	==
*-	*-	*-	*-
!!!RWG: This file only contains pitch and duration data.
!!!RWG: Transposing instruments are not transposed.
!!!RWG: Durations of rests and tied notes may be interpreted.
!!!RWG: Key is interpreted using the Humdrum key tool.
!!!SCA: K\o3chel 171
!!!YOR: Breitkopf & H\a3rtel Edition
!!!AGN: chamber; string quartet
!!!AFT: stage1
!!!ENC: F. Bennion
!!!END: 1997/04/15
!!!AST: classical
!!!YEC: Copyright 1994, Center for Computer Assisted Research in the Humanities
!!!YEM: Rights to all derivative electronic formats reserved.
!!!YEM: Refer to licensing agreement for further details.
!!!YEN: United States of America
!!!EED: W.B. Hewlett
!!!KEY: 2047249143
!!!EMD: Converted from MuseData to Humdrum Aug 9, 1999, by Bret Aarden using muse2kern.
!!!VTS: 524654049
